X:1
T:C minor Oliver Holden, 1806
T:JIsaac Watts, 1719 (Psalm 146)  88. 88. 88.
T:Desertion
T:Treble-Tenor-Bass from The Psalmodist's Assistant , 1806; Counter by B. C. Johnston, 2016.
%%score [ 1 2 3 4 ]
L:1/8
M:4/4
K:Eb
V:1 treble nm="Treble" snm="Tr."
V:2 treble nm="Counter" snm="C."
V:3 treble-8 nm="Tenor" snm="T."
V:4 bass nm="Bass" snm="B."
V:1
 c4 c2 d2 | e4 (d2 f2) | (B2 G2) F4 | E4 G4 | (c2 =B2) (c2 d2) | (A2 G2) (F2 E2) | D6 D2 | C8 | %8
w: 1.~I'll praise my|Ma- ker *|with * my|breath, And|when * my *|voice * is *|lost in|death,|
w: 2.~Why should I|make a *|man * my|trust? Prin-|ces * must *|die * and *|turn to|dust;|
 G4 c2 d2 | d4 c4 | =B4 c4 | !fermata!d4 (e3 d) | c3 c c2 EF | G4 F4 | E8 | (B2 G2) G2 c2 | %16
w: Praise shall em-|ploy my|no- bler|powers: My *|days of praise shall *|ne'er be|past,|While * life, and|
w: Vain is the|help of|flesh and|blood: Their *|breath de- parts, their *|pomp and|power,|And * thoughts, all|
 (c2 G2) (G2 d2) | (d2 e2) (d2 c2) | =B4 d4 | (e2 d2) (e2 f2) | g4 c4 | G4 =B4 | c8 |] %23
w: thought, * and *|be- * ing *|last, Or|im- * mor- *|ta- li-|ty en-|dures.|
w: va- * nish *|in * an *|hour, Nor|can * they *|make their|pro- mise|good.|
V:2
 E4 G2 =B2 | c4 F4 | (G2 E2) F4 | G4 G4 | (G2 F2) (G2 =B2) | c4 F4 | G6 =B2 | c8 | G4 G2 G2 | %9
w: 3.~Hap- py the|man whose|hopes * re-|ly On|Is- * rael's *|God: he|made the|sky,|And earth, and|
w: 4.~The Lord hath|eyes to|give * the|blind; The|Lord * sup- *|ports the|sin- king|mind;|He send the|
 =B4 c4 | =B4 G4 | !fermata!G4 (E3 D) | E3 G c2 G2 | E4 F4 | E8 | G4 E2 E2 | (E2 G2) (G2 F2) | %17
w: seas, with|all their|train: His *|truth for ev- er|stands se-|cure;|He saves th'op-|pressed, * he *|
w: la- boring|con- science|peace; He *|helps the stran- ger|in di-|tress,|The wi- dow|and * the *|
 G4 (=B2 G2) | G4 G4 | (E2 F2) (E2 F2) | E4 (F2 G2) | G4 =B4 | c8 |] %23
w: feeds the *|poor, And|none * shall *|find his *|pro- mise|vain.|
w: fa- ther- *|less, And|grants * the *|pri- soner *|sweet re-|lease.|
V:3
 G4 G2 G2 | c4 c4 | e4 d4 | e4 e4 | (e2 d2) (c2 =B2) | c4 c4 | =B6 B2 | c8 | c4 c2 =B2 | G4 e4 | %10
w: 5.~He loves his|saints, he|knows them|well, But|turns * the *|wick- ed|down to|hell;|Thy God, O|Zi- on!|
w: 6.~I'll praise my|Ma- ker|with my|breath, And|when * my *|voice is|lost in|death,|Praise shall em-|ploy my|
 d4 c4 | !fermata!=B4 (c3 d) | e3 e e2 e2 | e4 d4 | e8 | (G2 B2) B2 e2 | (e2 c2) (G2 F2) | %17
w: ev- er|reigns: Let *|eve- ry tongue, let|eve- ry|age,|In * this ex-|al- * ted *|
w: no- bler|powers: My *|days of praise shall|ne'er be|past,|While * life, and|thought, * and *|
 (B2 G2) (=B2 c2) | d4 =B4 | c4 (c2 d2) | e4 (e2 d2) | c4 G4 | G8 |] %23
w: work * en- *|gage; Praise|him in *|ev- er- *|las- ting|strains.|
w: be- * ing *|last, Or|im- mor- *|ta- li- *|ty en-|dure.|
V:4
 C,4 C,2 G,2 | E,4 F,4 | [E,G,]4 [B,,B,]4 | E,4 C,4 | G,4 G,4 | (F,2 E,2) (D,2 C,2) | %6
 [G,,G,]6 G,,2 | C,8 | C,4 C,2 G,2 | G,4 C4 | G,4 C,4 | !fermata!G,4 C,4 | C,3 C, E,2 G,A, | %13
 B,4 B,,4 | %14
"^________________________________________\nEdited by B. C. Johnston, 2016.  \nTop line, labeled \"Air\" in original, moved to \nTenor\n,  down one octave.  \nSecond line moved to top line, \nTreble\n.  \nCounter\n  part added.   \nIsaac Watts' paraphrase of Psalm 146 substituted for original words, by Joseph Hart." E,8 | %15
 E,4 E,2 C,2 | C,4 E,2 F,2 | G,4 G,4 | G,4 G,4 | (E,2 F,2) (G,2 F,2) | E,4 (E,2 F,2) | G,4 G,4 | %22
 C,8 |] %23

